icons/screen-full-16.svg

<svg width="16" height="16" viewBox="0 0 16 16" xmlns="http://www.w3.org/2000/svg">
  <path fill-rule="evenodd" clip-rule="evenodd" d="M2.75 2.5C2.61193 2.5 2.5 2.61193 2.5 2.75V5.25C2.5 5.66421 2.16421 6 1.75 6C1.33579 6 1 5.66421 1 5.25V2.75C1 1.7835 1.7835 1 2.75 1H5.25C5.66421 1 6 1.33579 6 1.75C6 2.16421 5.66421 2.5 5.25 2.5H2.75ZM10 1.75C10 1.33579 10.3358 1 10.75 1H13.25C14.2165 1 15 1.7835 15 2.75V5.25C15 5.66421 14.6642 6 14.25 6C13.8358 6 13.5 5.66421 13.5 5.25V2.75C13.5 2.61193 13.3881 2.5 13.25 2.5H10.75C10.3358 2.5 10 2.16421 10 1.75ZM1.75 10C2.16421 10 2.5 10.3358 2.5 10.75V13.25C2.5 13.3881 2.61193 13.5 2.75 13.5H5.25C5.66421 13.5 6 13.8358 6 14.25C6 14.6642 5.66421 15 5.25 15H2.75C1.7835 15 1 14.2165 1 13.25V10.75C1 10.3358 1.33579 10 1.75 10ZM14.25 10C14.6642 10 15 10.3358 15 10.75V13.25C15 14.2165 14.2165 15 13.25 15H10.75C10.3358 15 10 14.6642 10 14.25C10 13.8358 10.3358 13.5 10.75 13.5H13.25C13.3881 13.5 13.5 13.3881 13.5 13.25V10.75C13.5 10.3358 13.8358 10 14.25 10Z"/>
</svg>

<svg xmlns="http://www.w3.org/2000/svg" width="16" height="16" viewBox="0 0 16 16"><path fill-rule="evenodd" d="M2.75 2.5a.25.25 0 00-.25.25v2.5a.75.75 0 01-1.5 0v-2.5C1 1.784 1.784 1 2.75 1h2.5a.75.75 0 010 1.5h-2.5zM10 1.75a.75.75 0 01.75-.75h2.5c.966 0 1.75.784 1.75 1.75v2.5a.75.75 0 01-1.5 0v-2.5a.25.25 0 00-.25-.25h-2.5a.75.75 0 01-.75-.75zM1.75 10a.75.75 0 01.75.75v2.5c0 .138.112.25.25.25h2.5a.75.75 0 010 1.5h-2.5A1.75 1.75 0 011 13.25v-2.5a.75.75 0 01.75-.75zm12.5 0a.75.75 0 01.75.75v2.5A1.75 1.75 0 0113.25 15h-2.5a.75.75 0 010-1.5h2.5a.25.25 0 00.25-.25v-2.5a.75.75 0 01.75-.75z"/></svg>
